X: 4630
T: Bow-Legged Tailor, The
R: jig
M: 6/8
K: Gmajor
|:GAG gfg|edc B2A|GAG BAG|FAA cBA|
GAG gfg|afd cAF|DEG Adc|BGG G2B:|
|:dBG dBG|ecA dBG|gba gBd|cAA ABd|
dBg dBG|EFG AFD|GFG Adc|BGG G2A:|

